dist/img/telegram.svg

<svg width="26" height="27" viewBox="0 0 26 27" fill="none" xmlns="http://www.w3.org/2000/svg">
<path d="M13.302 26.1783C20.3042 26.1783 26.0006 20.482 26.0006 13.4798C26.0006 6.4776 20.3042 0.78125 13.302 0.78125C6.29986 0.78125 0.603516 6.4776 0.603516 13.4798C0.603516 20.482 6.29986 26.1783 13.302 26.1783ZM13.302 2.36857C19.4291 2.36857 24.4133 7.35274 24.4133 13.4798C24.4133 19.6068 19.4291 24.591 13.302 24.591C7.175 24.591 2.19083 19.6068 2.19083 13.4798C2.19083 7.35274 7.175 2.36857 13.302 2.36857Z" fill="#2B6BA0"/>
<path d="M8.9593 15.761L10.6186 15.0403L10.153 15.507C10.0038 15.6562 9.92015 15.8583 9.92015 16.0679V19.1737C9.92015 19.8848 10.7794 20.2298 11.2747 19.7346L12.9403 18.0689L16.5699 19.8838C17.0398 20.1187 17.6081 19.8404 17.7054 19.3155L19.7763 7.92811C19.8853 7.3154 19.2821 6.82016 18.7054 7.04662L5.24921 12.3133C4.64603 12.5483 4.56561 13.3737 5.11164 13.7218L8.21643 15.7028C8.43866 15.8446 8.71908 15.8668 8.9593 15.761ZM17.9604 9.04452L16.334 17.9917L13.1382 16.3949C12.8292 16.2404 12.4609 16.3049 12.2228 16.5441L11.5075 17.2594V16.3991L14.6895 13.217C15.3064 12.6001 14.6123 11.5821 13.8123 11.9281L8.71485 14.1398L7.28203 13.2255L17.9604 9.04452Z" fill="#2B6BA0"/>
</svg>

<svg width="26" height="27" fill="none" xmlns="http://www.w3.org/2000/svg"><path d="M13.302 26.178c7.002 0 12.699-5.696 12.699-12.698C26 6.478 20.304.78 13.302.78S.604 6.478.604 13.48 6.3 26.178 13.302 26.178zm0-23.81c6.127 0 11.111 4.985 11.111 11.112S19.43 24.59 13.302 24.59c-6.127 0-11.111-4.984-11.111-11.111 0-6.127 4.984-11.111 11.111-11.111z" fill="#2B6BA0"/><path d="M8.96 15.761l1.659-.72-.466.466a.794.794 0 00-.233.56v3.107c0 .71.86 1.056 1.355.56l1.665-1.665 3.63 1.815a.794.794 0 001.135-.569l2.071-11.387a.795.795 0 00-1.07-.881L5.248 12.313a.795.795 0 00-.137 1.409l3.104 1.98a.792.792 0 00.743.059zm9-6.716l-1.626 8.947-3.196-1.597a.792.792 0 00-.915.15l-.716.714v-.86l3.183-3.182c.616-.617-.078-1.635-.878-1.289L8.715 14.14l-1.433-.915 10.678-4.18z" fill="#2B6BA0"/></svg>
